svg/fluentui-system-icons/ic_fluent_drawer_play_20_regular.svg

<svg width="20" height="20" viewBox="0 0 20 20" fill="none" xmlns="http://www.w3.org/2000/svg">
<path d="M17 9.74284V15C17 16.6569 15.6569 18 14 18H6C4.34315 18 3 16.6569 3 15V7C3 5.34315 4.34315 4 6 4H8.20703C8.11588 4.32228 8.05337 4.65659 8.02242 5H6C4.89543 5 4 5.89543 4 7H8.20703C8.30564 7.34864 8.43777 7.68321 8.59971 8H4V11H7.5C7.77614 11 8 11.2239 8 11.5C8 12.6046 8.89543 13.5 10 13.5C11.1046 13.5 12 12.6046 12 11.5C12 11.2239 12.2239 11 12.5 11H16L16 10.4003C16.3578 10.2174 16.6929 9.99647 17 9.74284ZM14 17C15.1046 17 16 16.1046 16 15V12H12.9585C12.7205 13.4189 11.4865 14.5 10 14.5C8.5135 14.5 7.27952 13.4189 7.04148 12H4V15C4 16.1046 4.89543 17 6 17H14ZM13.5 10C15.9853 10 18 7.98528 18 5.5C18 3.01472 15.9853 1 13.5 1C11.0147 1 9 3.01472 9 5.5C9 7.98528 11.0147 10 13.5 10ZM12.7428 3.41268L15.7133 5.06292C16.0562 5.25342 16.0562 5.74658 15.7133 5.93708L12.7428 7.58732C12.4096 7.77247 12 7.53149 12 7.15024L12 3.84976C12 3.46852 12.4096 3.22753 12.7428 3.41268Z" fill="#212121"/>
</svg>

<svg xmlns="http://www.w3.org/2000/svg" width="20" height="20"><path d="M17 9.743V15a3 3 0 0 1-3 3H6a3 3 0 0 1-3-3V7a3 3 0 0 1 3-3h2.207a5.48 5.48 0 0 0-.185 1H6a2 2 0 0 0-2 2h4.207c.099.349.23.683.393 1H4v3h3.5a.5.5 0 0 1 .5.5 2 2 0 1 0 4 0 .5.5 0 0 1 .5-.5H16v-.6a5.507 5.507 0 0 0 1-.657ZM14 17a2 2 0 0 0 2-2v-3h-3.041a3 3 0 0 1-5.918 0H4v3a2 2 0 0 0 2 2h8Zm-.5-7a4.5 4.5 0 1 0 0-9 4.5 4.5 0 0 0 0 9Zm-.757-6.587 2.97 1.65a.5.5 0 0 1 0 .874l-2.97 1.65A.5.5 0 0 1 12 7.15v-3.3a.5.5 0 0 1 .743-.437Z"/></svg>
